X:1
T:Title
%%score 1 2
L:1/8
Q:1/4=90
M:4/4
K:Ab
V:1 treble nm="Strings 1, Treble"
V:2 bass nm="Strings 1, Bass"
V:1
 z4 z2 z [CE] | [CE]2 [CA][DB] [Ec]2 [DB][CA] | [DB]2 [DA][DF] [CE]3 [CA] | %3
w: 1.~How~|of ten~ I've~ pon dered~ my~|strug gles~ with in,~ Be|
 [DG]2 [DG][CA] [DB]2 [DE][DE] | [EA]2 [EA][EB] [Ec]3 [Ec] | [Ae]2 [Ec][Ec] [Ec]2 [EB][EA] | %6
w: tween~ the~ good~ Spir it~ and~|in dwell ing~ sin,~ A~|foe~ in~ the~ tem ple~ not~|
 [FB]2 [FA][DF] [CE]3 [CE] | [DF]2 [Fd][Fd] [Ec]2 [EB][EA] | [Ec]>[Ec] [DB]2 [CA]3 [CA] | %9
w: sub ject~ to~ God;~ But~|now~ I~ am~ free~ through~ the~|won der ful~ blood.~ *|
 [DG]>[DG] [DG]2 [DG]2 [DF][DE] | [CA]>[CA] [DA]2 [CA]3 [CA] | [Ec]2 [Ec][EB] [EA]2 [EG][EA] | %12
w: |||
 [GB]>[GB] [Ac]2 [GB]3 [Ac] | [Ae]2 [Ec][Ec] [Ec]2 [EB][EA] | [FB]2 [FA][DF] [CE]3 [CE] | %15
w: |||
 [DF]2 [Fd][Fd] [Ec]2 [DB][CA] | [Ec]>[Ec] [DB]2 [CA]4 |] %17
w: ||
V:2
 z4 z2 z [A,,A,] | [A,,A,]2 [A,,A,][A,,A,] [A,,A,]2 [A,,D,][A,,E,] | %2
 [D,F,]2 [D,F,][D,A,] [A,,A,]3 [A,,A,] | [E,B,]2 [E,B,][E,A,] [E,G,]2 [E,G,][E,G,] | %4
 [C,A,]2 [C,A,][E,G,] A,3 A, | [A,C]2 A,A, [A,,A,]2 [B,,G,][C,A,] | %6
 [D,A,]2 [D,A,][D,A,] [A,,A,]3 [A,,A,] | [D,A,]2 [D,A,][D,A,] [E,A,]2 [E,D][E,C] | %8
 [E,A,]>[E,A,] [E,G,]2 [A,,A,]3 [A,,A,] | [E,B,]>[E,B,] [E,B,]2 [E,B,]2 z2 | %10
 [A,,A,]>[A,,A,] [A,,F,]2 [A,,E,]3 A, | A,2 A,[A,B,] [A,C]2 [B,D][A,C] | %12
 [E,E]>[E,E] [E,E]2 [E,E]3 A, | [A,C]2 A,A, [A,,A,]2 [B,,G,][C,A,] | %14
 [D,A,]2 [D,A,][D,A,] [A,,A,]3 [A,,A,] | [D,A,]2 [D,A,][D,A,] [E,A,]2 [F,A,][F,A,] | %16
 [E,A,]>[E,A,] [E,G,]2 [A,,A,]4 |] %17

